icons/High Temperature--1504953.svg

<svg enable-background="new 0 0 16 16" viewBox="0 0 16 16" xmlns="http://www.w3.org/2000/svg"><path d="m6 16c-1.654 0-3-1.346-3-3 0-.864.361-1.666 1-2.236v-8.764c0-1.103.897-2 2-2s2 .897 2 2v8.764c.639.57 1 1.372 1 2.236 0 1.654-1.346 3-3 3zm0-15c-.551 0-1 .449-1 1v9c0 .157-.074.305-.199.399-.509.384-.801.967-.801 1.601 0 1.103.897 2 2 2s2-.897 2-2c0-.634-.292-1.217-.801-1.601-.125-.094-.199-.242-.199-.399v-9c0-.551-.449-1-1-1zm-1.5 10h.01z"/><path d="m7.5 6h-3c-.276 0-.5-.224-.5-.5s.224-.5.5-.5h3c.276 0 .5.224.5.5s-.224.5-.5.5z"/><path d="m14.5 7h-4c-.276 0-.5-.224-.5-.5s.224-.5.5-.5h4c.276 0 .5.224.5.5s-.224.5-.5.5z"/><path d="m12.5 9c-.276 0-.5-.224-.5-.5v-4c0-.276.224-.5.5-.5s.5.224.5.5v4c0 .276-.224.5-.5.5z"/></svg>

<?xml version="1.0" encoding="utf-8"?>
<!DOCTYPE svg PUBLIC "-//W3C//DTD SVG 1.0//EN" "http://www.w3.org/TR/2001/REC-SVG-20010904/DTD/svg10.dtd">
<svg    fill="#000000" xmlns="http://www.w3.org/2000/svg" xmlns:xlink="http://www.w3.org/1999/xlink" version="1.1" x="0px" y="0px" viewBox="0 0 16 16" style="enable-background:new 0 0 16 16;" xml:space="preserve"><g><path d="M6,16c-1.654,0-3-1.346-3-3c0-0.864,0.361-1.666,1-2.236V2c0-1.103,0.897-2,2-2s2,0.897,2,2v8.764   c0.639,0.57,1,1.372,1,2.236C9,14.654,7.654,16,6,16z M6,1C5.449,1,5,1.449,5,2v9c0,0.157-0.074,0.305-0.199,0.399   C4.292,11.783,4,12.366,4,13c0,1.103,0.897,2,2,2s2-0.897,2-2c0-0.634-0.292-1.217-0.801-1.601C7.074,11.305,7,11.157,7,11V2   C7,1.449,6.551,1,6,1z M4.5,11h0.01H4.5z"></path><path d="M7.5,6h-3C4.224,6,4,5.776,4,5.5S4.224,5,4.5,5h3C7.776,5,8,5.224,8,5.5S7.776,6,7.5,6z"></path><path d="M14.5,7h-4C10.224,7,10,6.776,10,6.5S10.224,6,10.5,6h4C14.776,6,15,6.224,15,6.5S14.776,7,14.5,7z"></path><path d="M12.5,9C12.224,9,12,8.776,12,8.5v-4C12,4.224,12.224,4,12.5,4S13,4.224,13,4.5v4C13,8.776,12.776,9,12.5,9z"></path></g></svg>
